svg/color/bico.svg

<svg width="64" height="65" viewBox="0 0 64 65" fill="none" xmlns="http://www.w3.org/2000/svg">
<rect y="0.303711" width="64" height="64" rx="32" fill="black"/>
<rect x="0.5" y="0.803711" width="63" height="63" rx="31.5" stroke="white" stroke-opacity="0.15"/>
<path d="M36.1334 17.3917C34.9494 16.7197 33.5734 16.3037 32.1334 16.3037H24.1334C26.3414 16.3037 28.1334 18.0957 28.1334 20.3037V28.3037V32.3037H32.1334C33.6054 32.3037 34.9494 31.9197 36.1334 31.2157C37.0294 30.7037 37.7974 30.0317 38.4054 29.2317C39.4934 27.8557 40.1334 26.1597 40.1334 24.2717C40.1334 21.3597 38.5334 18.7677 36.1334 17.3917Z" fill="#D85111"/>
<path d="M38.4054 29.2637C37.7654 30.0637 36.9974 30.7357 36.1334 31.2477C34.9494 31.9197 33.5734 32.3357 32.1334 32.3357H28.1334V28.3037V20.3037C28.1334 18.0957 26.3414 16.3037 24.1334 16.3037C21.9254 16.3037 20.1334 18.0957 20.1334 20.3037V28.3037V32.3037V44.3037V48.3037H24.1334H34.1174C34.8214 48.3037 35.4614 48.2397 36.1014 48.1117C40.6774 47.1837 44.1014 43.1517 44.1014 38.3197C44.1334 34.3197 41.7974 30.8637 38.4054 29.2637Z" fill="white"/>
</svg>

<svg xmlns="http://www.w3.org/2000/svg" width="64" height="65" fill="none" viewBox="0 0 64 65"><rect width="64" height="64" y=".304" fill="#000" rx="32"/><rect width="63" height="63" x=".5" y=".804" stroke="#fff" stroke-opacity=".15" rx="31.5"/><path fill="#D85111" d="M36.133 17.392c-1.184-.672-2.56-1.088-4-1.088h-8c2.208 0 4 1.792 4 4v12h4a7.73 7.73 0 0 0 4-1.088 7.5 7.5 0 0 0 2.272-1.984 7.9 7.9 0 0 0 1.728-4.96c0-2.912-1.6-5.504-4-6.88"/><path fill="#fff" d="M38.405 29.264a8.4 8.4 0 0 1-2.272 1.984c-1.184.672-2.56 1.088-4 1.088h-4V20.304c0-2.208-1.792-4-4-4s-4 1.792-4 4v28h13.984c.704 0 1.344-.064 1.984-.192 4.576-.928 8-4.96 8-9.792a9.92 9.92 0 0 0-5.696-9.056"/></svg>
